Newaita/actions/16/go-down.svg

<svg height="16" viewBox="0 0 16 16" width="16" xmlns="http://www.w3.org/2000/svg"><g fill="#424242"><path d="m8.601562 3.433594v9.261718c0 .363282-.296874.660157-.664062.660157-.363281 0-.660156-.296875-.660156-.660157v-9.261718c0-.367188.296875-.664063.660156-.664063.367188 0 .664062.296875.664062.664063zm0 0"/><path d="m3.726562 7.546875 4.679688 4.679687c.257812.257813.257812.675782 0 .933594-.257812.257813-.675781.257813-.9375 0l-4.675781-4.675781c-.257813-.257813-.257813-.679687 0-.9375.257812-.257813.675781-.257813.933593 0zm0 0"/><path d="m13.085938 8.484375-4.679688 4.675781c-.257812.257813-.675781.257813-.933594 0-.257812-.257812-.257812-.675781 0-.933594l4.675782-4.679687c.257812-.257813.675781-.257813.9375 0 .257812.257813.257812.679687 0 .9375zm0 0"/></g></svg>

<svg xmlns="http://www.w3.org/2000/svg" xmlns:xlink="http://www.w3.org/1999/xlink" width="16px" height="16px" viewBox="0 0 16 16" version="1.1">
<g id="surface1">
     <defs>
  <style id="current-color-scheme" type="text/css">
   .ColorScheme-Text { color:#424242; } .ColorScheme-Highlight { color:#eeeeee; }
  </style>
 </defs>
<path style="fill:currentColor" class="ColorScheme-Text" d="M 8.601562 3.433594 L 8.601562 12.695312 C 8.601562 13.058594 8.304688 13.355469 7.9375 13.355469 C 7.574219 13.355469 7.277344 13.058594 7.277344 12.695312 L 7.277344 3.433594 C 7.277344 3.066406 7.574219 2.769531 7.9375 2.769531 C 8.304688 2.769531 8.601562 3.066406 8.601562 3.433594 Z M 8.601562 3.433594 "/>
     <defs>
  <style id="current-color-scheme" type="text/css">
   .ColorScheme-Text { color:#424242; } .ColorScheme-Highlight { color:#eeeeee; }
  </style>
 </defs>
<path style="fill:currentColor" class="ColorScheme-Text" d="M 3.726562 7.546875 L 8.40625 12.226562 C 8.664062 12.484375 8.664062 12.902344 8.40625 13.160156 C 8.148438 13.417969 7.730469 13.417969 7.46875 13.160156 L 2.792969 8.484375 C 2.535156 8.226562 2.535156 7.804688 2.792969 7.546875 C 3.050781 7.289062 3.46875 7.289062 3.726562 7.546875 Z M 3.726562 7.546875 "/>
     <defs>
  <style id="current-color-scheme" type="text/css">
   .ColorScheme-Text { color:#424242; } .ColorScheme-Highlight { color:#eeeeee; }
  </style>
 </defs>
<path style="fill:currentColor" class="ColorScheme-Text" d="M 13.085938 8.484375 L 8.40625 13.160156 C 8.148438 13.417969 7.730469 13.417969 7.472656 13.160156 C 7.214844 12.902344 7.214844 12.484375 7.472656 12.226562 L 12.148438 7.546875 C 12.40625 7.289062 12.824219 7.289062 13.085938 7.546875 C 13.34375 7.804688 13.34375 8.226562 13.085938 8.484375 Z M 13.085938 8.484375 "/>
</g>
</svg>
